; generated by PrusaSlicer 2.3.1+win64 on 2021-08-05 at 08:40:40 UTC


;
;

;
;
; 

; external perimeters extrusion width = 0.45mm
; perimeters extrusion width = 0.45mm
; infill extrusion width = 0.45mm
; solid infill extrusion width = 0.45mm
; top infill extrusion width = 0.40mm
; support material extrusion width = 0.35mm
; first layer extrusion width = 0.42mm

M73 P0 R15
M201 X1250 Y1250 Z400 E5000 ; sets maximum accelerations, mm/sec^2
M203 X180 Y180 Z12 E80 ; sets maximum feedrates, mm/sec
M204 P1250 R1250 T1250 ; sets acceleration (P, T) and retract acceleration (R), mm/sec^2
M205 X8.00 Y8.00 Z2.00 E10.00 ; sets the jerk limits, mm/sec
M205 S0 T0 ; sets the minimum extruding and travel feed rate, mm/sec
M107
;TYPE:Custom
G90 ; use absolute coordinates
M83 ; extruder relative mode
M104 S170 ; set extruder temp for bed leveling
M140 S60 ; set bed temp
M109 R170 ; wait for bed leveling temp
M190 S60 ; wait for bed temp
G28 ; home all without mesh bed level
G29 ; mesh bed leveling 
M104 S215 ; set extruder temp
G92 E0.0
G1 Y-2.0 X179 F2400
G1 Z3 F720
M109 S215 ; wait for extruder temp

; intro line
G1 X170 F1000
G1 Z0.2 F720
G1 X110.0 E8.0 F900
M73 P1 R15
G1 X40.0 E10.0 F700
G92 E0.0

M221 S95 ; set flow
G21 ; set units to millimeters
G90 ; use absolute coordinates
M83 ; use relative distances for extrusion
M900 K0.2 ; Filament gcode LA 1.5
; ; Filament gcode LA 1.0
;LAYER_CHANGE
;Z:0.2
;HEIGHT:0.2
;BEFORE_LAYER_CHANGE
G92 E0.0
;0.2


M73 P1 R14
G1 E-3.20000 F4200.000
G1 Z0.200 F9000.000
;AFTER_LAYER_CHANGE
;0.2
G1 Z0.400
G1 X60.882 Y66.862
G1 Z0.200
G1 E3.20000 F2400.000
M204 S800
;TYPE:Skirt
;WIDTH:0.42
G1 F1200.000
G1 X61.644 Y66.367 E0.02849
G1 X62.536 Y66.195 E0.02849
G1 X91.377 Y66.372 E0.90429
M73 P2 R14
G1 X110.842 Y69.151 E0.61652
G1 X111.956 Y69.489 E0.03650
G1 X112.953 Y70.126 E0.03710
G1 X113.509 Y70.701 E0.02508
G1 X114.067 Y71.596 E0.03307
G1 X114.328 Y72.340 E0.02472
G1 X114.463 Y73.371 E0.03259
G1 X114.462 Y106.318 E1.03304
G1 X114.394 Y107.006 E0.02168
G1 X114.137 Y107.887 E0.02879
G1 X113.812 Y108.525 E0.02246
G1 X113.433 Y109.042 E0.02008
G1 X112.466 Y109.882 E0.04017
G1 X111.908 Y110.181 E0.01985
G1 X111.253 Y110.410 E0.02175
G1 X91.397 Y114.305 E0.63444
G1 X67.001 Y114.313 E0.76492
G1 X62.247 Y114.127 E0.14918
G1 X61.584 Y113.946 E0.02154
G1 X61.003 Y113.586 E0.02142
G1 X60.653 Y113.222 E0.01585
G1 X60.388 Y112.791 E0.01585
G1 X60.220 Y112.314 E0.01585
G1 X60.157 Y111.812 E0.01585
G1 X60.157 Y68.496 E1.35816
G1 X60.361 Y67.607 E0.02860
G1 X60.847 Y66.911 E0.02661
M204 S1250
; printing object top_cover.stl id:1 copy 0
G1 E-2.24000 F4200.000
;WIPE_START
G1 F7200.000
G1 X61.644 Y66.367 E-0.53445
G1 X62.313 Y66.238 E-0.37755
;WIPE_END
G1 E-0.04800 F4200.000
G1 Z0.400 F9000.000
G1 X94.028 Y74.617
M73 P3 R14
G1 Z0.200
G1 E3.20000 F2400.000
M204 S800
;TYPE:Perimeter
G1 F1200.000
G1 X110.442 Y74.617 E0.51465
G1 X110.442 Y105.031 E0.95361
G1 X94.028 Y105.031 E0.51465
G1 X94.028 Y74.677 E0.95173
M204 S1250
G1 X94.405 Y74.994 F9000.000
M204 S800
;TYPE:External perimeter
G1 F1200.000
G1 X110.065 Y74.994 E0.49101
G1 X110.065 Y104.654 E0.92997
G1 X94.405 Y104.654 E0.49101
G1 X94.405 Y75.054 E0.92809
M204 S1250
M73 P4 R14
G1 X94.341 Y74.600 F9000.000
G1 E-2.24000 F4200.000
;WIPE_START
G1 F7200.000
G1 X96.051 Y75.048 E-0.91200
;WIPE_END
G1 E-0.04800 F4200.000
G1 Z0.400 F9000.000
G1 X93.784 Y72.873
G1 Z0.200
G1 E3.20000 F2400.000
M204 S800
;TYPE:Perimeter
G1 F1200.000
G1 X110.111 Y72.863 E0.51192
G1 X110.310 Y72.891 E0.00628
G1 X110.446 Y72.954 E0.00471
G1 X110.597 Y73.094 E0.00644
G1 X110.668 Y73.250 E0.00538
G1 X110.696 Y73.448 E0.00628
G1 X110.696 Y106.201 E1.02694
G1 X110.668 Y106.399 E0.00628
G1 X110.606 Y106.536 E0.00471
G1 X110.507 Y106.649 E0.00473
G1 X110.362 Y106.742 E0.00539
G1 X110.111 Y106.785 E0.00798
G1 X94.359 Y106.785 E0.49391
G1 X94.161 Y106.757 E0.00628
G1 X94.024 Y106.695 E0.00471
G1 X93.874 Y106.555 E0.00644
G1 X93.802 Y106.399 E0.00538
G1 X93.774 Y106.201 E0.00628
G1 X93.784 Y72.933 E1.04310
M204 S1250
G1 X93.407 Y72.496 F9000.000
M204 S800
;TYPE:External perimeter
G1 F1200.000
G1 X110.138 Y72.486 E0.52458
G1 X110.417 Y72.526 E0.00883
G1 X110.652 Y72.633 E0.00812
G1 X110.854 Y72.808 E0.00836
G1 X110.923 Y72.900 E0.00361
G1 X111.034 Y73.143 E0.00836
G1 X111.073 Y73.421 E0.00882
G1 X111.073 Y106.227 E1.02861
G1 X111.034 Y106.506 E0.00882
G1 X110.926 Y106.742 E0.00812
G1 X110.756 Y106.937 E0.00813
G1 X110.532 Y107.082 E0.00836
G1 X110.424 Y107.122 E0.00360
G1 X110.138 Y107.162 E0.00906
G1 X94.332 Y107.162 E0.49559
M73 P5 R14
G1 X94.054 Y107.123 E0.00882
G1 X93.818 Y107.015 E0.00812
G1 X93.616 Y106.841 E0.00836
G1 X93.547 Y106.748 E0.00361
G1 X93.437 Y106.506 E0.00836
G1 X93.397 Y106.227 E0.00882
G1 X93.407 Y72.556 E1.05573
M204 S1250
G1 X93.754 Y72.696 F9000.000
G1 E-2.24000 F4200.000
;WIPE_START
G1 F7200.000
G1 X95.053 Y72.549 E-0.91200
;WIPE_END
G1 E-0.04800 F4200.000
G1 Z0.400 F9000.000
G1 X110.072 Y72.976
G1 Z0.200
G1 E3.20000 F2400.000
M204 S800
;TYPE:Solid infill
;WIDTH:0.428909
G1 F1200.000
G1 X110.367 Y73.271 E0.01337
G1 X110.394 Y73.330 E0.00209
G1 X110.413 Y73.468 E0.00447
G1 X110.413 Y73.863 E0.01269
G1 X109.696 Y73.146 E0.03255
G1 X109.151 Y73.147 E0.01751
G1 X110.339 Y74.334 E0.05392
G1 X109.793 Y74.334 E0.01752
G1 X108.605 Y73.147 E0.05390
G1 X108.060 Y73.147 E0.01751
G1 X109.247 Y74.334 E0.05389
G1 X108.701 Y74.334 E0.01752
G1 X107.514 Y73.148 E0.05387
G1 X106.969 Y73.148 E0.01751
G1 X108.155 Y74.334 E0.05386
G1 X107.609 Y74.334 E0.01752
G1 X106.423 Y73.148 E0.05385
G1 X105.877 Y73.148 E0.01751
G1 X107.063 Y74.334 E0.05383
G1 X106.518 Y74.334 E0.01752
G1 X105.332 Y73.149 E0.05382
G1 X104.786 Y73.149 E0.01751
G1 X105.972 Y74.334 E0.05380
G1 X105.426 Y74.334 E0.01752
G1 X104.241 Y73.149 E0.05379
G1 X103.695 Y73.150 E0.01751
G1 X104.880 Y74.334 E0.05378
G1 X104.334 Y74.334 E0.01752
G1 X103.150 Y73.150 E0.05376
G1 X102.604 Y73.150 E0.01751
G1 X103.788 Y74.334 E0.05375
G1 X103.242 Y74.334 E0.01752
G1 X102.059 Y73.151 E0.05373
G1 X101.513 Y73.151 E0.01751
G1 X102.696 Y74.334 E0.05372
G1 X102.151 Y74.334 E0.01752
G1 X100.967 Y73.151 E0.05370
G1 X100.422 Y73.152 E0.01751
G1 X101.605 Y74.334 E0.05369
G1 X101.059 Y74.334 E0.01752
G1 X99.876 Y73.152 E0.05368
G1 X99.331 Y73.152 E0.01751
G1 X100.513 Y74.334 E0.05366
G1 X99.967 Y74.334 E0.01752
G1 X98.785 Y73.153 E0.05365
G1 X98.240 Y73.153 E0.01751
G1 X99.421 Y74.334 E0.05363
G1 X98.875 Y74.334 E0.01752
G1 X97.694 Y73.153 E0.05362
G1 X97.148 Y73.153 E0.01751
G1 X98.330 Y74.334 E0.05361
G1 X97.784 Y74.334 E0.01752
G1 X96.603 Y73.154 E0.05359
G1 X96.057 Y73.154 E0.01751
G1 X97.238 Y74.334 E0.05358
G1 X96.692 Y74.334 E0.01752
G1 X95.512 Y73.154 E0.05356
G1 X94.966 Y73.155 E0.01751
G1 X96.146 Y74.334 E0.05355
G1 X95.600 Y74.334 E0.01752
G1 X94.421 Y73.155 E0.05353
G1 X94.067 Y73.155 E0.01135
G1 X94.067 Y73.347 E0.00616
G1 X95.054 Y74.334 E0.04481
G1 X94.508 Y74.334 E0.01752
G1 X93.897 Y73.723 E0.02774
M204 S1250
G1 E-2.24000 F4200.000
;WIPE_START
G1 F7200.000
G1 X94.508 Y74.334 E-0.47896
G1 X95.054 Y74.334 E-0.30250
G1 X94.888 Y74.168 E-0.13054
;WIPE_END
G1 E-0.04800 F4200.000
G1 Z0.400 F9000.000
G1 X110.583 Y105.926
G1 Z0.200
G1 E3.20000 F2400.000
M204 S800
;WIDTH:0.42912
G1 F1200.000
G1 X109.971 Y105.314 E0.02779
G1 X109.425 Y105.314 E0.01754
G1 X110.398 Y106.287 E0.04420
G1 X110.365 Y106.381 E0.00319
G1 X110.320 Y106.434 E0.00223
G1 X110.258 Y106.473 E0.00237
G1 X110.067 Y106.503 E0.00619
G1 X108.879 Y105.314 E0.05397
G1 X108.333 Y105.314 E0.01754
G1 X109.521 Y106.503 E0.05397
G1 X108.975 Y106.503 E0.01754
G1 X107.787 Y105.314 E0.05397
G1 X107.240 Y105.314 E0.01754
G1 X108.429 Y106.503 E0.05397
G1 X107.883 Y106.503 E0.01754
G1 X106.694 Y105.314 E0.05397
G1 X106.148 Y105.314 E0.01754
G1 X107.336 Y106.503 E0.05397
G1 X106.790 Y106.503 E0.01754
G1 X105.602 Y105.314 E0.05397
G1 X105.056 Y105.314 E0.01754
G1 X106.244 Y106.503 E0.05397
G1 X105.698 Y106.503 E0.01754
G1 X104.509 Y105.314 E0.05397
G1 X103.963 Y105.314 E0.01754
G1 X105.152 Y106.503 E0.05397
M73 P6 R14
G1 X104.606 Y106.503 E0.01754
G1 X103.417 Y105.314 E0.05397
G1 X102.871 Y105.314 E0.01754
G1 X104.059 Y106.503 E0.05397
G1 X103.513 Y106.503 E0.01754
G1 X102.325 Y105.314 E0.05397
G1 X101.779 Y105.314 E0.01754
G1 X102.967 Y106.503 E0.05397
G1 X102.421 Y106.503 E0.01754
G1 X101.232 Y105.314 E0.05397
G1 X100.686 Y105.314 E0.01754
G1 X101.875 Y106.503 E0.05397
G1 X101.329 Y106.503 E0.01754
G1 X100.140 Y105.314 E0.05397
G1 X99.594 Y105.314 E0.01754
G1 X100.782 Y106.503 E0.05397
G1 X100.236 Y106.503 E0.01754
G1 X99.048 Y105.314 E0.05397
G1 X98.502 Y105.314 E0.01754
G1 X99.690 Y106.503 E0.05397
G1 X99.144 Y106.503 E0.01754
G1 X97.955 Y105.314 E0.05397
G1 X97.409 Y105.314 E0.01754
G1 X98.598 Y106.503 E0.05397
G1 X98.052 Y106.503 E0.01754
G1 X96.863 Y105.314 E0.05397
G1 X96.317 Y105.314 E0.01754
G1 X97.505 Y106.503 E0.05397
G1 X96.959 Y106.503 E0.01754
G1 X95.771 Y105.314 E0.05397
G1 X95.225 Y105.314 E0.01754
G1 X96.413 Y106.503 E0.05397
G1 X95.867 Y106.503 E0.01754
G1 X94.678 Y105.314 E0.05397
G1 X94.132 Y105.314 E0.01754
G1 X95.321 Y106.503 E0.05397
G1 X94.775 Y106.503 E0.01754
G1 X94.057 Y105.785 E0.03258
G1 X94.057 Y106.181 E0.01271
G1 X94.077 Y106.319 E0.00447
G1 X94.104 Y106.378 E0.00209
G1 X94.398 Y106.672 E0.01338
M204 S1250
; stop printing object top_cover.stl id:1 copy 0
; printing object bottom_cover.stl id:0 copy 0
G1 E-2.24000 F4200.000
;WIPE_START
G1 F7200.000
G1 X94.104 Y106.378 E-0.23084
G1 X94.077 Y106.319 E-0.03599
G1 X94.057 Y106.181 E-0.07717
G1 X94.057 Y105.785 E-0.21928
G1 X94.502 Y106.230 E-0.34872
;WIPE_END
G1 E-0.04800 F4200.000
G1 Z0.400 F9000.000
G1 X91.191 Y111.937
G1 Z0.200
G1 E3.20000 F2400.000
M204 S800
;TYPE:Support material
;WIDTH:0.42
G1 F1200.000
G1 X91.191 Y68.742 E1.35436
G1 X90.437 Y68.742 E0.02365
G1 X90.437 Y111.767 E1.34904
G1 X89.683 Y111.767 E0.02365
G1 X89.683 Y68.742 E1.34904
M73 P7 R14
G1 X88.929 Y68.742 E0.02365
G1 X88.929 Y111.767 E1.34904
G1 X88.175 Y111.767 E0.02365
G1 X88.175 Y68.742 E1.34904
G1 X87.420 Y68.742 E0.02365
G1 X87.420 Y111.767 E1.34904
G1 X86.666 Y111.767 E0.02365
G1 X86.666 Y68.742 E1.34904
M73 P8 R14
G1 X85.912 Y68.742 E0.02365
G1 X85.912 Y72.450 E0.11628
G1 X85.737 Y72.322 E0.00682
G1 X85.542 Y72.216 E0.00695
G1 X85.305 Y72.125 E0.00797
G1 X85.158 Y72.090 E0.00473
G1 X85.158 Y68.742 E0.10499
G1 X84.404 Y68.742 E0.02365
G1 X84.404 Y72.048 E0.10366
G1 X83.650 Y72.048 E0.02365
G1 X83.650 Y68.742 E0.10366
G1 X82.896 Y68.742 E0.02365
G1 X82.896 Y72.048 E0.10366
G1 X82.141 Y72.048 E0.02365
G1 X82.141 Y68.742 E0.10366
G1 X81.387 Y68.742 E0.02365
G1 X81.387 Y72.048 E0.10366
G1 X80.633 Y72.048 E0.02365
G1 X80.633 Y68.742 E0.10366
G1 X79.879 Y68.742 E0.02365
G1 X79.879 Y72.048 E0.10366
G1 X79.125 Y72.048 E0.02365
G1 X79.125 Y68.742 E0.10366
G1 X78.371 Y68.742 E0.02365
G1 X78.371 Y72.048 E0.10366
G1 X77.616 Y72.048 E0.02365
G1 X77.616 Y68.742 E0.10366
M73 P8 R13
G1 X76.862 Y68.742 E0.02365
G1 X76.862 Y72.048 E0.10366
G1 X76.108 Y72.048 E0.02365
G1 X76.108 Y68.742 E0.10366
G1 X75.354 Y68.742 E0.02365
G1 X75.354 Y72.048 E0.10366
G1 X74.600 Y72.048 E0.02365
G1 X74.600 Y68.742 E0.10366
G1 X73.846 Y68.742 E0.02365
G1 X73.846 Y72.048 E0.10366
G1 X73.091 Y72.048 E0.02365
G1 X73.091 Y68.742 E0.10366
G1 X72.337 Y68.742 E0.02365
G1 X72.337 Y72.048 E0.10366
G1 X71.583 Y72.048 E0.02365
G1 X71.583 Y68.742 E0.10366
G1 X70.829 Y68.742 E0.02365
G1 X70.829 Y72.048 E0.10366
G1 X70.075 Y72.048 E0.02365
G1 X70.075 Y68.742 E0.10366
G1 X69.321 Y68.742 E0.02365
G1 X69.321 Y72.048 E0.10366
G1 X68.913 Y72.048 E0.01279
G1 X68.566 Y72.090 E0.01093
G1 X68.566 Y68.742 E0.10499
G1 X67.812 Y68.742 E0.02365
G1 X67.812 Y72.450 E0.11628
G1 X67.580 Y72.675 E0.01014
G1 X67.430 Y72.880 E0.00797
G1 X67.323 Y73.074 E0.00695
G1 X67.223 Y73.343 E0.00899
G1 X67.171 Y73.592 E0.00797
G1 X67.156 Y73.821 E0.00720
G1 X67.167 Y108.181 E1.07733
G1 X67.432 Y108.448 E0.01181
G1 X67.812 Y108.452 E0.01191
G1 X67.812 Y111.767 E0.10395
G1 X68.566 Y111.767 E0.02365
G1 X68.566 Y108.459 E0.10372
G1 X69.131 Y108.459 E0.01769
G1 X69.321 Y108.267 E0.00847
G1 X69.321 Y111.767 E0.10974
G1 X70.075 Y111.767 E0.02365
G1 X70.075 Y103.509 E0.25894
M73 P9 R13
G1 X70.829 Y103.509 E0.02365
G1 X70.829 Y111.767 E0.25894
G1 X71.583 Y111.767 E0.02365
G1 X71.583 Y103.509 E0.25894
G1 X72.337 Y103.509 E0.02365
G1 X72.337 Y111.937 E0.26426
M204 S1250
G1 X67.058 Y111.937 F9000.000
M204 S800
G1 F1200.000
G1 X67.058 Y68.742 E1.35436
G1 X66.304 Y68.742 E0.02365
G1 X66.304 Y111.767 E1.34904
G1 X65.550 Y111.767 E0.02365
G1 X65.550 Y68.742 E1.34904
G1 X64.796 Y68.742 E0.02365
G1 X64.796 Y111.767 E1.34904
M73 P10 R13
G1 X64.042 Y111.767 E0.02365
G1 X64.042 Y68.742 E1.34904
G1 X63.287 Y68.742 E0.02365
G1 X63.287 Y111.767 E1.34904
G1 X62.533 Y111.767 E0.02365
G1 X62.533 Y68.572 E1.35436
M204 S1250
G1 E-2.24000 F4200.000
;WIPE_START
G1 F7200.000
G1 X62.533 Y70.218 E-0.91200
;WIPE_END
G1 E-0.04800 F4200.000
G1 Z0.400 F9000.000
G1 X85.665 Y108.940
M73 P11 R13
G1 Z0.200
G1 E3.20000 F2400.000
M204 S800
;TYPE:Support material interface
;WIDTH:0.35
G1 F1200.000
G1 X85.665 Y108.620 E0.00817
G1 X85.402 Y108.719 E0.00717
G1 X85.147 Y108.776 E0.00667
G1 X85.147 Y108.940 E0.00417
M204 S1250
G1 X84.112 Y108.940 F9000.000
M204 S800
G1 F1200.000
G1 X84.112 Y106.336 E0.06649
M204 S1250
G1 X83.650 Y106.301 F9000.000
M204 S800
;TYPE:Support material
;WIDTH:0.42
G1 F1200.000
G1 X83.650 Y103.509 E0.08755
G1 X82.895 Y103.509 E0.02365
G1 X82.895 Y111.767 E0.25894
G1 X83.650 Y111.767 E0.02365
G1 X83.650 Y109.144 E0.08224
G1 X84.404 Y109.144 E0.02365
G1 X84.404 Y111.767 E0.08224
G1 X85.158 Y111.767 E0.02365
G1 X85.158 Y109.144 E0.08224
G1 X85.912 Y109.144 E0.02365
G1 X85.912 Y111.937 E0.08755
M204 S1250
G1 X82.141 Y111.937 F9000.000
M204 S800
G1 F1200.000
G1 X82.141 Y103.509 E0.26426
G1 X81.387 Y103.509 E0.02365
G1 X81.387 Y111.937 E0.26426
M204 S1250
G1 E-2.24000 F4200.000
;WIPE_START
G1 F7200.000
G1 X81.387 Y110.291 E-0.91200
;WIPE_END
G1 E-0.04800 F4200.000
G1 Z0.400 F9000.000
G1 X85.323 Y93.592
G1 Z0.200
G1 E3.20000 F2400.000
M204 S800
;TYPE:Perimeter
G1 F1200.000
G1 X68.407 Y93.592 E0.53039
G1 X68.401 Y73.857 E0.61877
G1 X68.456 Y73.609 E0.00796
G1 X68.537 Y73.483 E0.00473
G1 X68.651 Y73.384 E0.00473
G1 X68.788 Y73.322 E0.00471
G1 X68.986 Y73.293 E0.00627
G1 X84.862 Y73.305 E0.49780
G1 X85.007 Y73.348 E0.00473
G1 X85.191 Y73.480 E0.00709
G1 X85.295 Y73.680 E0.00708
G1 X85.323 Y73.878 E0.00628
G1 X85.323 Y93.532 E0.61625
M204 S1250
G1 X85.197 Y93.969 F9000.000
M204 S800
;TYPE:External perimeter
G1 F1200.000
G1 X68.527 Y93.969 E0.52268
G1 X68.527 Y107.590 E0.42707
G1 X68.035 Y107.585 E0.01545
G1 X68.024 Y73.844 E1.05794
M73 P12 R13
G1 X68.034 Y73.707 E0.00430
G1 X68.109 Y73.451 E0.00836
G1 X68.249 Y73.233 E0.00813
G1 X68.445 Y73.063 E0.00813
G1 X68.681 Y72.956 E0.00812
G1 X68.959 Y72.916 E0.00882
G1 X84.917 Y72.928 E0.50034
G1 X85.165 Y73.001 E0.00813
G1 X85.390 Y73.145 E0.00836
G1 X85.550 Y73.330 E0.00767
G1 X85.661 Y73.573 E0.00836
G1 X85.700 Y73.851 E0.00883
G1 X85.700 Y106.665 E1.02884
G1 X85.691 Y106.802 E0.00430
G1 X85.613 Y107.065 E0.00860
G1 X85.558 Y107.166 E0.00361
G1 X85.383 Y107.367 E0.00836
G1 X85.195 Y107.489 E0.00702
G1 X85.197 Y94.029 E0.42200
M204 S1250
G1 X85.195 Y93.569 F9000.000
G1 X85.449 Y93.781
M204 S800
;TYPE:Gap fill
;WIDTH:0.171084
G1 F1200.000
G1 X85.444 Y106.757 E0.13829
M204 S1250
M204 S800
;WIDTH:0.163854
G1 X85.428 Y106.869 E0.00114
M204 S1250
M204 S800
;WIDTH:0.131624
G1 X85.412 Y106.981 E0.00084
M204 S1250
M204 S800
;WIDTH:0.0993951
G1 X85.403 Y107.018 E0.00018
M204 S1250
G1 E-2.24000 F4200.000
;WIPE_START
G1 F7200.000
G1 X85.412 Y106.981 E-0.02077
;WIPE_END
G1 E-0.93923 F4200.000
G1 Z0.400 F9000.000
G1 X68.281 Y107.399
G1 Z0.200
G1 E3.20000 F2400.000
M204 S800
;WIDTH:0.16279
G1 F1200.000
G1 X68.279 Y93.781 E0.13574
M204 S1250
G1 E-2.24000 F4200.000
;WIPE_START
G1 F7200.000
G1 X68.279 Y95.427 E-0.91200
;WIPE_END
G1 E-0.04800 F4200.000
G1 Z0.400 F9000.000
G1 X84.186 Y73.418
G1 Z0.200
G1 E3.20000 F2400.000
M204 S800
;TYPE:Solid infill
;WIDTH:0.423208
G1 F1200.000
G1 X85.040 Y74.273 E0.03823
