; generated by PrusaSlicer 2.3.1+win64 on 2021-08-05 at 08:33:13 UTC


;
;

;
;
; 

; external perimeters extrusion width = 0.45mm
; perimeters extrusion width = 0.45mm
; infill extrusion width = 0.45mm
; solid infill extrusion width = 0.45mm
; top infill extrusion width = 0.40mm
; support material extrusion width = 0.35mm
; first layer extrusion width = 0.42mm

M73 P0 R5
M201 X1250 Y1250 Z400 E5000 ; sets maximum accelerations, mm/sec^2
M203 X180 Y180 Z12 E80 ; sets maximum feedrates, mm/sec
M204 P1250 R1250 T1250 ; sets acceleration (P, T) and retract acceleration (R), mm/sec^2
M205 X8.00 Y8.00 Z2.00 E10.00 ; sets the jerk limits, mm/sec
M205 S0 T0 ; sets the minimum extruding and travel feed rate, mm/sec
M107
;TYPE:Custom
G90 ; use absolute coordinates
M83 ; extruder relative mode
M104 S170 ; set extruder temp for bed leveling
M140 S60 ; set bed temp
M109 R170 ; wait for bed leveling temp
M190 S60 ; wait for bed temp
G28 ; home all without mesh bed level
G29 ; mesh bed leveling 
M104 S215 ; set extruder temp
G92 E0.0
G1 Y-2.0 X179 F2400
M73 P1 R5
G1 Z3 F720
M109 S215 ; wait for extruder temp

; intro line
G1 X170 F1000
G1 Z0.2 F720
M73 P2 R5
G1 X110.0 E8.0 F900
M73 P3 R4
G1 X40.0 E10.0 F700
G92 E0.0

M221 S95 ; set flow
G21 ; set units to millimeters
G90 ; use absolute coordinates
M83 ; use relative distances for extrusion
M900 K0.2 ; Filament gcode LA 1.5
; ; Filament gcode LA 1.0
;LAYER_CHANGE
;Z:0.2
;HEIGHT:0.2
;BEFORE_LAYER_CHANGE
G92 E0.0
;0.2


M73 P5 R4
G1 E-3.20000 F4200.000
G1 Z0.200 F9000.000
;AFTER_LAYER_CHANGE
;0.2
G1 Z0.400
G1 X79.994 Y73.281
G1 Z0.200
G1 E3.20000 F2400.000
M204 S800
;TYPE:Skirt
;WIDTH:0.42
G1 F1200.000
G1 X80.521 Y72.810 E0.02218
G1 X81.151 Y72.487 E0.02218
G1 X81.846 Y72.336 E0.02231
G1 X97.924 Y72.326 E0.50412
M73 P6 R4
G1 X98.933 Y72.519 E0.03221
G1 X99.798 Y73.065 E0.03208
G1 X100.404 Y73.890 E0.03208
G1 X100.667 Y74.879 E0.03208
G1 X100.674 Y104.945 E0.94270
G1 X100.601 Y105.550 E0.01912
G1 X100.397 Y106.124 E0.01912
G1 X100.000 Y106.725 E0.02256
G1 X99.459 Y107.204 E0.02269
G1 X98.810 Y107.526 E0.02269
G1 X98.101 Y107.668 E0.02269
G1 X82.039 Y107.674 E0.50361
M73 P7 R4
G1 X81.442 Y107.599 E0.01886
G1 X80.876 Y107.397 E0.01886
G1 X80.260 Y106.987 E0.02320
G1 X79.773 Y106.424 E0.02333
G1 X79.455 Y105.752 E0.02333
G1 X79.328 Y105.023 E0.02320
G1 X79.326 Y75.055 E0.93962
G1 X79.399 Y74.450 E0.01912
G1 X79.603 Y73.876 E0.01912
G1 X79.961 Y73.332 E0.02042
M204 S1250
G1 X80.274 Y73.540 F9000.000
M204 S800
G1 F1200.000
G1 X80.751 Y73.109 E0.02015
G1 X81.301 Y72.834 E0.01929
G1 X81.904 Y72.709 E0.01929
G1 X97.924 Y72.703 E0.50229
M73 P8 R4
G1 X98.798 Y72.871 E0.02790
G1 X99.546 Y73.346 E0.02778
G1 X100.070 Y74.065 E0.02790
G1 X100.292 Y74.927 E0.02790
G1 X100.297 Y104.939 E0.94102
G1 X100.233 Y105.467 E0.01668
G1 X100.053 Y105.968 E0.01669
G1 X99.705 Y106.489 E0.01965
G1 X99.233 Y106.901 E0.01965
G1 X98.670 Y107.176 E0.01965
G1 X98.054 Y107.293 E0.01965
G1 X82.046 Y107.297 E0.50194
M73 P9 R4
G1 X81.525 Y107.231 E0.01645
G1 X81.032 Y107.053 E0.01645
G1 X80.499 Y106.695 E0.02012
G1 X80.084 Y106.211 E0.02000
G1 X79.811 Y105.630 E0.02012
G1 X79.704 Y104.997 E0.02012
G1 X79.703 Y75.061 E0.93863
G1 X79.767 Y74.533 E0.01668
G1 X79.947 Y74.032 E0.01669
G1 X80.241 Y73.590 E0.01665
M204 S1250
; printing object LOGO plate.stl id:0 copy 0
G1 E-2.24000 F4200.000
;WIPE_START
G1 F7200.000
G1 X80.751 Y73.109 E-0.38836
G1 X81.301 Y72.834 E-0.34099
G1 X81.624 Y72.767 E-0.18264
;WIPE_END
G1 E-0.04800 F4200.000
G1 Z0.400 F9000.000
G1 X82.867 Y75.867
G1 Z0.200
G1 E3.20000 F2400.000
M204 S800
;TYPE:Perimeter
G1 F1200.000
G1 X97.133 Y75.867 E0.44729
M73 P10 R4
G1 X97.133 Y104.133 E0.88625
G1 X82.867 Y104.133 E0.44729
M73 P11 R4
G1 X82.867 Y75.927 E0.88437
M204 S1250
G1 X82.490 Y75.490 F9000.000
M204 S800
;TYPE:External perimeter
G1 F1200.000
G1 X97.510 Y75.490 E0.47094
G1 X97.510 Y104.510 E0.90990
M73 P12 R4
G1 X82.490 Y104.510 E0.47094
G1 X82.490 Y75.550 E0.90802
M204 S1250
M73 P13 R4
G1 X82.864 Y75.633 F9000.000
G1 E-2.24000 F4200.000
;WIPE_START
G1 F7200.000
G1 X84.136 Y75.543 E-0.91200
;WIPE_END
G1 E-0.04800 F4200.000
G1 Z0.400 F9000.000
G1 X96.257 Y75.980
G1 Z0.200
G1 E3.20000 F2400.000
M204 S800
;TYPE:Solid infill
;WIDTH:0.420233
G1 F1200.000
G1 X96.850 Y76.573 E0.02631
G1 X96.850 Y77.107 E0.01674
G1 X95.893 Y76.150 E0.04246
G1 X95.359 Y76.150 E0.01674
G1 X96.850 Y77.640 E0.06614
G1 X96.850 Y78.174 E0.01674
G1 X94.826 Y76.150 E0.08981
G1 X94.292 Y76.150 E0.01674
G1 X96.850 Y78.708 E0.11349
G1 X96.850 Y79.241 E0.01674
G1 X93.759 Y76.150 E0.13716
G1 X93.225 Y76.150 E0.01674
G1 X96.850 Y79.775 E0.16084
G1 X96.850 Y80.309 E0.01674
G1 X92.691 Y76.150 E0.18451
G1 X92.158 Y76.150 E0.01674
G1 X96.850 Y80.842 E0.20819
M73 P14 R4
G1 X96.850 Y81.376 E0.01674
G1 X91.624 Y76.150 E0.23186
G1 X91.091 Y76.150 E0.01674
G1 X96.850 Y81.909 E0.25554
G1 X96.850 Y82.443 E0.01674
G1 X90.557 Y76.150 E0.27922
G1 X90.023 Y76.150 E0.01674
G1 X96.850 Y82.977 E0.30289
G1 X96.850 Y83.510 E0.01674
G1 X89.490 Y76.150 E0.32657
G1 X88.956 Y76.150 E0.01674
G1 X96.850 Y84.044 E0.35024
M73 P15 R4
G1 X96.850 Y84.577 E0.01674
G1 X88.423 Y76.150 E0.37392
G1 X87.889 Y76.150 E0.01674
G1 X96.850 Y85.111 E0.39759
G1 X96.850 Y85.645 E0.01674
G1 X87.355 Y76.150 E0.42127
G1 X86.822 Y76.150 E0.01674
G1 X96.850 Y86.178 E0.44494
M73 P16 R4
G1 X96.850 Y86.712 E0.01674
G1 X86.288 Y76.150 E0.46862
G1 X85.755 Y76.150 E0.01674
G1 X96.850 Y87.245 E0.49229
G1 X96.850 Y87.779 E0.01674
G1 X85.221 Y76.150 E0.51597
M73 P17 R4
G1 X84.687 Y76.150 E0.01674
G1 X96.850 Y88.313 E0.53964
G1 X96.850 Y88.846 E0.01674
G1 X84.154 Y76.150 E0.56332
G1 X83.620 Y76.150 E0.01674
G1 X96.850 Y89.380 E0.58700
M73 P18 R4
G1 X96.850 Y89.913 E0.01674
G1 X83.150 Y76.213 E0.60787
G1 X83.150 Y76.747 E0.01674
G1 X96.850 Y90.447 E0.60787
G1 X96.850 Y90.981 E0.01674
G1 X83.150 Y77.280 E0.60787
M73 P19 R4
G1 X83.150 Y77.814 E0.01674
G1 X96.850 Y91.514 E0.60787
G1 X96.850 Y92.048 E0.01674
G1 X83.150 Y78.348 E0.60787
G1 X83.150 Y78.881 E0.01674
G1 X96.850 Y92.581 E0.60787
M73 P20 R4
G1 X96.850 Y93.115 E0.01674
G1 X83.150 Y79.415 E0.60787
G1 X83.150 Y79.948 E0.01674
G1 X96.850 Y93.649 E0.60787
G1 X96.850 Y94.182 E0.01674
G1 X83.150 Y80.482 E0.60787
M73 P21 R4
G1 X83.150 Y81.016 E0.01674
G1 X96.850 Y94.716 E0.60787
G1 X96.850 Y95.249 E0.01674
G1 X83.150 Y81.549 E0.60787
M73 P22 R4
G1 X83.150 Y82.083 E0.01674
G1 X96.850 Y95.783 E0.60787
G1 X96.850 Y96.317 E0.01674
G1 X83.150 Y82.616 E0.60787
G1 X83.150 Y83.150 E0.01674
G1 X96.850 Y96.850 E0.60787
M73 P23 R4
G1 X96.850 Y97.384 E0.01674
G1 X83.150 Y83.684 E0.60787
G1 X83.150 Y84.217 E0.01674
G1 X96.850 Y97.917 E0.60787
G1 X96.850 Y98.451 E0.01674
G1 X83.150 Y84.751 E0.60787
M73 P24 R3
G1 X83.150 Y85.284 E0.01674
G1 X96.850 Y98.985 E0.60787
G1 X96.850 Y99.518 E0.01674
G1 X83.150 Y85.818 E0.60787
G1 X83.150 Y86.352 E0.01674
G1 X96.850 Y100.052 E0.60787
M73 P25 R3
G1 X96.850 Y100.585 E0.01674
G1 X83.150 Y86.885 E0.60787
G1 X83.150 Y87.419 E0.01674
G1 X96.850 Y101.119 E0.60787
M73 P26 R3
G1 X96.850 Y101.653 E0.01674
G1 X83.150 Y87.952 E0.60787
G1 X83.150 Y88.486 E0.01674
G1 X96.850 Y102.186 E0.60787
G1 X96.850 Y102.720 E0.01674
G1 X83.150 Y89.020 E0.60787
M73 P27 R3
G1 X83.150 Y89.553 E0.01674
G1 X96.850 Y103.253 E0.60787
G1 X96.850 Y103.787 E0.01674
G1 X83.150 Y90.087 E0.60787
G1 X83.150 Y90.620 E0.01674
G1 X96.380 Y103.850 E0.58699
M73 P28 R3
G1 X95.846 Y103.850 E0.01674
G1 X83.150 Y91.154 E0.56332
G1 X83.150 Y91.688 E0.01674
G1 X95.312 Y103.850 E0.53964
G1 X94.779 Y103.850 E0.01674
G1 X83.150 Y92.221 E0.51597
M73 P29 R3
G1 X83.150 Y92.755 E0.01674
G1 X94.245 Y103.850 E0.49229
G1 X93.712 Y103.850 E0.01674
G1 X83.150 Y93.288 E0.46861
G1 X83.150 Y93.822 E0.01674
G1 X93.178 Y103.850 E0.44494
M73 P30 R3
G1 X92.644 Y103.850 E0.01674
G1 X83.150 Y94.356 E0.42126
G1 X83.150 Y94.889 E0.01674
G1 X92.111 Y103.850 E0.39759
G1 X91.577 Y103.850 E0.01674
G1 X83.150 Y95.423 E0.37391
G1 X83.150 Y95.956 E0.01674
G1 X91.044 Y103.850 E0.35024
M73 P31 R3
G1 X90.510 Y103.850 E0.01674
G1 X83.150 Y96.490 E0.32656
G1 X83.150 Y97.024 E0.01674
G1 X89.976 Y103.850 E0.30289
G1 X89.443 Y103.850 E0.01674
G1 X83.150 Y97.557 E0.27921
G1 X83.150 Y98.091 E0.01674
G1 X88.909 Y103.850 E0.25554
G1 X88.376 Y103.850 E0.01674
G1 X83.150 Y98.624 E0.23186
G1 X83.150 Y99.158 E0.01674
G1 X87.842 Y103.850 E0.20819
M73 P32 R3
G1 X87.308 Y103.850 E0.01674
G1 X83.150 Y99.692 E0.18451
G1 X83.150 Y100.225 E0.01674
G1 X86.775 Y103.850 E0.16083
G1 X86.241 Y103.850 E0.01674
G1 X83.150 Y100.759 E0.13716
G1 X83.150 Y101.292 E0.01674
G1 X85.708 Y103.850 E0.11348
G1 X85.174 Y103.850 E0.01674
G1 X83.150 Y101.826 E0.08981
G1 X83.150 Y102.360 E0.01674
G1 X84.640 Y103.850 E0.06613
G1 X84.107 Y103.850 E0.01674
G1 X83.150 Y102.893 E0.04246
G1 X83.150 Y103.427 E0.01674
G1 X83.743 Y104.020 E0.02631
M204 S1250
; stop printing object LOGO plate.stl id:0 copy 0
M106 S84.15
;LAYER_CHANGE
;Z:0.35
;HEIGHT:0.15
;BEFORE_LAYER_CHANGE
G92 E0.0
;0.35


G1 E-2.24000 F4200.000
;WIPE_START
G1 F7200.000
G1 X83.150 Y103.427 E-0.46473
G1 X83.150 Y102.893 E-0.29570
G1 X83.343 Y103.087 E-0.15156
;WIPE_END
G1 E-0.04800 F4200.000
G1 Z0.400 F9000.000
;AFTER_LAYER_CHANGE
;0.35
M104 S210 ; set temperature
G1 X79.455 Y105.752
G1 Z0.350
G1 E3.20000 F2400.000
;TYPE:Skirt
;WIDTH:0.42
G1 X79.328 Y105.023 E0.01789
G1 X79.326 Y75.055 E0.72477
M73 P33 R3
G1 X79.399 Y74.450 E0.01474
G1 X79.603 Y73.876 E0.01474
G1 X79.994 Y73.281 E0.01721
G1 X80.521 Y72.810 E0.01711
G1 X81.151 Y72.487 E0.01711
G1 X81.846 Y72.336 E0.01721
G1 X97.924 Y72.326 E0.38885
G1 X98.933 Y72.519 E0.02484
G1 X99.798 Y73.065 E0.02474
G1 X100.404 Y73.890 E0.02474
G1 X100.667 Y74.879 E0.02474
G1 X100.674 Y104.945 E0.72714
G1 X100.601 Y105.550 E0.01474
G1 X100.397 Y106.124 E0.01474
G1 X100.000 Y106.725 E0.01740
G1 X99.459 Y107.204 E0.01750
G1 X98.810 Y107.526 E0.01750
G1 X98.101 Y107.668 E0.01750
G1 X82.039 Y107.674 E0.38846
G1 X81.442 Y107.599 E0.01455
G1 X80.876 Y107.397 E0.01455
G1 X80.260 Y106.987 E0.01789
G1 X79.773 Y106.424 E0.01799
G1 X79.480 Y105.806 E0.01654
G1 X79.820 Y105.647 F9000.000
G1 F2400.000
G1 X79.704 Y104.997 E0.01596
G1 X79.703 Y75.061 E0.72400
M73 P34 R3
G1 X79.767 Y74.533 E0.01287
G1 X79.947 Y74.032 E0.01287
G1 X80.290 Y73.516 E0.01497
G1 X80.751 Y73.109 E0.01488
G1 X81.301 Y72.834 E0.01488
G1 X81.904 Y72.709 E0.01488
G1 X97.924 Y72.703 E0.38744
G1 X98.798 Y72.871 E0.02152
G1 X99.546 Y73.346 E0.02143
G1 X100.070 Y74.065 E0.02152
G1 X100.292 Y74.927 E0.02152
G1 X100.297 Y104.939 E0.72584
G1 X100.233 Y105.467 E0.01287
G1 X100.053 Y105.968 E0.01287
G1 X99.705 Y106.489 E0.01516
G1 X99.233 Y106.901 E0.01516
G1 X98.670 Y107.176 E0.01516
G1 X98.054 Y107.293 E0.01516
G1 X82.046 Y107.297 E0.38716
G1 X81.525 Y107.231 E0.01269
G1 X81.032 Y107.053 E0.01269
G1 X80.499 Y106.695 E0.01552
G1 X80.084 Y106.211 E0.01543
G1 X79.845 Y105.701 E0.01361
; printing object LOGO plate.stl id:0 copy 0
G1 E-2.24000 F4200.000
;WIPE_START
G1 F7200.000
G1 X79.704 Y104.997 E-0.39798
G1 X79.704 Y104.070 E-0.51402
;WIPE_END
G1 E-0.04800 F4200.000
G1 Z0.550 F9000.000
G1 X82.723 Y104.277
G1 Z0.350
G1 E3.20000 F2400.000
M204 S800
;TYPE:Perimeter
;WIDTH:0.45
G1 X82.723 Y75.723 E0.74400
M73 P35 R3
G1 X97.277 Y75.723 E0.37922
G1 X97.277 Y104.277 E0.74400
G1 X82.783 Y104.277 E0.37766
M204 S1250
G1 X82.305 Y104.695 F9000.000
M204 S800
;TYPE:External perimeter
G1 F1800.000
G1 X82.305 Y75.305 E0.76578
M73 P36 R3
G1 X97.695 Y75.305 E0.40100
G1 X97.695 Y104.695 E0.76578
G1 X82.365 Y104.695 E0.39943
M204 S1250
G1 X82.369 Y104.300 F9000.000
G1 E-2.24000 F4200.000
;WIPE_START
G1 F7200.000
G1 X82.362 Y103.049 E-0.91200
;WIPE_END
G1 E-0.04800 F4200.000
G1 Z0.550 F9000.000
G1 X96.297 Y100.899
G1 Z0.350
G1 E3.20000 F2400.000
M204 S1000
;TYPE:Solid infill
;WIDTH:0.454719
G1 F4800.000
G1 X96.964 Y100.232 E0.02484
M73 P37 R3
G1 X96.964 Y99.635 E0.01575
G1 X95.888 Y100.711 E0.04010
G1 X95.290 Y100.711 E0.01575
G1 X96.964 Y99.037 E0.06237
G1 X96.964 Y98.440 E0.01575
G1 X94.693 Y100.711 E0.08464
G1 X94.095 Y100.711 E0.01575
G1 X96.964 Y97.842 E0.10690
G1 X96.964 Y97.245 E0.01575
G1 X93.497 Y100.711 E0.12917
G1 X92.900 Y100.711 E0.01575
G1 X96.964 Y96.647 E0.15144
G1 X96.964 Y96.050 E0.01575
G1 X92.302 Y100.711 E0.17371
G1 X91.705 Y100.711 E0.01575
G1 X96.964 Y95.452 E0.19597
G1 X96.964 Y94.855 E0.01575
G1 X91.107 Y100.711 E0.21824
G1 X90.510 Y100.711 E0.01575
G1 X96.964 Y94.257 E0.24051
G1 X96.964 Y93.659 E0.01575
G1 X89.912 Y100.711 E0.26277
G1 X89.315 Y100.711 E0.01575
G1 X96.964 Y93.062 E0.28504
G1 X96.964 Y92.464 E0.01575
G1 X88.717 Y100.711 E0.30731
G1 X88.120 Y100.711 E0.01575
G1 X96.964 Y91.867 E0.32958
G1 X96.964 Y91.269 E0.01575
G1 X87.522 Y100.711 E0.35184
M73 P38 R3
G1 X86.924 Y100.711 E0.01575
G1 X96.964 Y90.672 E0.37411
G1 X96.964 Y90.074 E0.01575
G1 X86.327 Y100.711 E0.39638
G1 X85.729 Y100.711 E0.01575
G1 X96.964 Y89.477 E0.41865
G1 X96.964 Y88.879 E0.01575
G1 X85.132 Y100.711 E0.44091
G1 X84.534 Y100.711 E0.01575
G1 X96.964 Y88.282 E0.46318
G1 X96.964 Y87.684 E0.01575
G1 X83.937 Y100.711 E0.48545
G1 X83.339 Y100.711 E0.01575
G1 X96.964 Y87.086 E0.50772
G1 X96.964 Y86.489 E0.01575
G1 X83.036 Y100.417 E0.51901
G1 X83.036 Y99.819 E0.01575
G1 X96.964 Y85.891 E0.51901
M73 P39 R3
G1 X96.964 Y85.294 E0.01575
G1 X83.036 Y99.221 E0.51901
G1 X83.036 Y98.624 E0.01575
G1 X96.964 Y84.696 E0.51901
G1 X96.964 Y84.099 E0.01575
G1 X83.036 Y98.026 E0.51901
G1 X83.036 Y97.429 E0.01575
G1 X96.964 Y83.501 E0.51901
G1 X96.964 Y82.904 E0.01575
G1 X83.036 Y96.831 E0.51901
G1 X83.036 Y96.234 E0.01575
G1 X96.964 Y82.306 E0.51901
G1 X96.964 Y81.709 E0.01575
G1 X83.036 Y95.636 E0.51901
G1 X83.036 Y95.039 E0.01575
G1 X96.964 Y81.111 E0.51901
M73 P40 R3
G1 X96.964 Y80.513 E0.01575
G1 X83.036 Y94.441 E0.51901
G1 X83.036 Y93.844 E0.01575
G1 X96.964 Y79.916 E0.51901
G1 X96.964 Y79.318 E0.01575
G1 X83.036 Y93.246 E0.51901
G1 X83.036 Y92.648 E0.01575
G1 X96.964 Y78.721 E0.51901
G1 X96.964 Y78.123 E0.01575
G1 X83.036 Y92.051 E0.51901
G1 X83.036 Y91.453 E0.01575
G1 X96.964 Y77.526 E0.51901
G1 X96.964 Y76.928 E0.01575
G1 X83.036 Y90.856 E0.51901
G1 X83.036 Y90.258 E0.01575
G1 X96.964 Y76.331 E0.51901
M73 P41 R3
G1 X96.964 Y76.036 E0.00776
G1 X96.661 Y76.036 E0.00799
G1 X83.036 Y89.661 E0.50771
G1 X83.036 Y89.063 E0.01575
G1 X96.063 Y76.036 E0.48545
G1 X95.466 Y76.036 E0.01575
G1 X83.036 Y88.466 E0.46318
G1 X83.036 Y87.868 E0.01575
G1 X94.868 Y76.036 E0.44091
G1 X94.271 Y76.036 E0.01575
G1 X83.036 Y87.271 E0.41864
G1 X83.036 Y86.673 E0.01575
G1 X93.673 Y76.036 E0.39638
G1 X93.075 Y76.036 E0.01575
G1 X83.036 Y86.075 E0.37411
G1 X83.036 Y85.478 E0.01575
G1 X92.478 Y76.036 E0.35184
G1 X91.880 Y76.036 E0.01575
G1 X83.036 Y84.880 E0.32957
G1 X83.036 Y84.283 E0.01575
G1 X91.283 Y76.036 E0.30731
M73 P42 R3
G1 X90.685 Y76.036 E0.01575
G1 X83.036 Y83.685 E0.28504
G1 X83.036 Y83.088 E0.01575
G1 X90.088 Y76.036 E0.26277
G1 X89.490 Y76.036 E0.01575
G1 X83.036 Y82.490 E0.24051
G1 X83.036 Y81.893 E0.01575
G1 X88.893 Y76.036 E0.21824
G1 X88.295 Y76.036 E0.01575
G1 X83.036 Y81.295 E0.19597
G1 X83.036 Y80.698 E0.01575
G1 X87.698 Y76.036 E0.17370
G1 X87.100 Y76.036 E0.01575
G1 X83.036 Y80.100 E0.15144
G1 X83.036 Y79.502 E0.01575
G1 X86.502 Y76.036 E0.12917
G1 X85.905 Y76.036 E0.01575
G1 X83.036 Y78.905 E0.10690
G1 X83.036 Y78.307 E0.01575
G1 X85.307 Y76.036 E0.08463
G1 X84.710 Y76.036 E0.01575
G1 X83.036 Y77.710 E0.06237
G1 X83.036 Y77.112 E0.01575
G1 X84.112 Y76.036 E0.04010
G1 X83.515 Y76.036 E0.01575
G1 X82.848 Y76.703 E0.02484
M204 S1250
G1 E-2.24000 F4200.000
;WIPE_START
G1 F7200.000
G1 X83.515 Y76.036 E-0.52237
G1 X84.112 Y76.036 E-0.33114
G1 X84.038 Y76.111 E-0.05849
;WIPE_END
G1 E-0.04800 F4200.000
G1 Z0.550 F9000.000
G1 X97.154 Y103.391
G1 Z0.350
G1 E3.20000 F2400.000
M204 S1000
;TYPE:Top solid infill
;WIDTH:0.409274
M73 P43 R3
G1 X96.557 Y103.989 E0.01988
G1 X96.023 Y103.989 E0.01254
G1 X96.989 Y103.023 E0.03211
G1 X96.989 Y102.490 E0.01254
G1 X95.490 Y103.989 E0.04984
G1 X94.957 Y103.989 E0.01254
G1 X96.989 Y101.957 E0.06758
G1 X96.989 Y101.424 E0.01254
G1 X94.424 Y103.989 E0.08531
G1 X93.890 Y103.989 E0.01254
