; generated by PrusaSlicer 2.3.1+win64 on 2021-08-04 at 18:28:08 UTC


;
;

;
;
; 

; external perimeters extrusion width = 0.45mm
; perimeters extrusion width = 0.45mm
; infill extrusion width = 0.45mm
; solid infill extrusion width = 0.45mm
; top infill extrusion width = 0.40mm
; support material extrusion width = 0.35mm
; first layer extrusion width = 0.42mm

M73 P0 R18
M201 X1250 Y1250 Z400 E5000 ; sets maximum accelerations, mm/sec^2
M203 X180 Y180 Z12 E80 ; sets maximum feedrates, mm/sec
M204 P1250 R1250 T1250 ; sets acceleration (P, T) and retract acceleration (R), mm/sec^2
M205 X8.00 Y8.00 Z2.00 E10.00 ; sets the jerk limits, mm/sec
M205 S0 T0 ; sets the minimum extruding and travel feed rate, mm/sec
M107
;TYPE:Custom
G90 ; use absolute coordinates
M83 ; extruder relative mode
M104 S170 ; set extruder temp for bed leveling
M140 S60 ; set bed temp
M109 R170 ; wait for bed leveling temp
M190 S60 ; wait for bed temp
G28 ; home all without mesh bed level
G29 ; mesh bed leveling 
M104 S215 ; set extruder temp
G92 E0.0
G1 Y-2.0 X179 F2400
G1 Z3 F720
M109 S215 ; wait for extruder temp

; intro line
G1 X170 F1000
G1 Z0.2 F720
G1 X110.0 E8.0 F900
G1 X40.0 E10.0 F700
G92 E0.0

M221 S95 ; set flow
G21 ; set units to millimeters
G90 ; use absolute coordinates
M83 ; use relative distances for extrusion
M900 K0.2 ; Filament gcode LA 1.5
; ; Filament gcode LA 1.0
;LAYER_CHANGE
;Z:0.2
;HEIGHT:0.2
;BEFORE_LAYER_CHANGE
G92 E0.0
;0.2


M73 P1 R18
G1 E-3.20000 F4200.000
G1 Z0.200 F9000.000
;AFTER_LAYER_CHANGE
;0.2
G1 Z0.400
G1 X77.492 Y69.518
G1 Z0.200
G1 E3.20000 F2400.000
M204 S800
;TYPE:Skirt
;WIDTH:0.42
G1 F1200.000
G1 X78.587 Y68.546 E0.04591
G1 X79.888 Y67.859 E0.04614
G1 X81.263 Y67.510 E0.04448
G1 X82.069 Y67.455 E0.02532
G1 X97.929 Y67.455 E0.49729
G1 X99.249 Y67.602 E0.04166
G1 X100.096 Y67.853 E0.02769
G1 X100.894 Y68.226 E0.02762
G1 X101.982 Y68.992 E0.04170
G1 X102.598 Y69.627 E0.02774
G1 X103.343 Y70.728 E0.04170
G1 X103.693 Y71.535 E0.02758
G1 X103.998 Y72.816 E0.04127
G1 X104.444 Y105.661 E1.02993
G1 X104.443 Y114.069 E0.26362
G1 X104.365 Y114.607 E0.01704
G1 X104.167 Y115.113 E0.01704
G1 X103.803 Y115.623 E0.01965
G1 X103.319 Y116.021 E0.01965
G1 X102.747 Y116.278 E0.01965
G1 X102.129 Y116.377 E0.01965
G1 X74.883 Y116.377 E0.85428
G1 X73.003 Y116.173 E0.05927
M73 P2 R18
G1 X72.296 Y115.931 E0.02343
G1 X71.817 Y115.596 E0.01835
G1 X71.432 Y115.150 E0.01846
G1 X71.169 Y114.628 E0.01835
G1 X71.042 Y114.056 E0.01835
G1 X71.042 Y102.856 E0.35116
G1 X76.018 Y72.714 E0.95789
G1 X76.313 Y71.519 E0.03859
G1 X76.660 Y70.723 E0.02722
G1 X77.458 Y69.568 E0.04403
M204 S1250
; printing object round_cover.stl id:0 copy 0
G1 E-2.24000 F4200.000
;WIPE_START
G1 F7200.000
G1 X78.587 Y68.546 E-0.84368
G1 X78.696 Y68.489 E-0.06832
;WIPE_END
G1 E-0.04800 F4200.000
G1 Z0.400 F9000.000
G1 X87.929 Y74.589
G1 Z0.200
G1 E3.20000 F2400.000
M204 S800
;TYPE:Support material interface
;WIDTH:0.35
G1 F1200.000
G1 X87.929 Y72.804 E0.04558
G1 X88.447 Y72.804 E0.01322
G1 X88.447 Y74.589 E0.04558
M204 S1250
G1 E-2.24000 F4200.000
;WIPE_START
G1 F7200.000
G1 X88.447 Y72.943 E-0.91200
;WIPE_END
G1 E-0.04800 F4200.000
G1 Z0.400 F9000.000
G1 X91.553 Y74.589
G1 Z0.200
G1 E3.20000 F2400.000
M204 S800
G1 F1200.000
G1 X91.553 Y72.804 E0.04558
G1 X92.071 Y72.804 E0.01322
G1 X92.071 Y74.589 E0.04558
M204 S1250
G1 E-2.24000 F4200.000
;WIPE_START
G1 F7200.000
G1 X92.071 Y72.943 E-0.91200
;WIPE_END
G1 E-0.04800 F4200.000
G1 Z0.400 F9000.000
G1 X73.409 Y103.085
G1 Z0.200
G1 E3.20000 F2400.000
M204 S800
;TYPE:Support material
;WIDTH:0.42
G1 F1200.000
G1 X73.409 Y113.831 E0.33693
G1 X74.163 Y113.831 E0.02365
G1 X74.163 Y103.254 E0.33161
G1 X74.917 Y103.254 E0.02365
G1 X74.917 Y114.000 E0.33693
M204 S1250
G1 X81.704 Y114.000 F9000.000
M204 S800
G1 F1200.000
G1 X81.704 Y110.117 E0.12177
G1 X81.076 Y110.117 E0.01969
G1 X81.076 Y111.208 E0.03420
G1 X80.950 Y111.208 E0.00396
G1 X80.950 Y113.831 E0.08224
G1 X80.196 Y113.831 E0.02365
G1 X80.196 Y111.208 E0.08224
G1 X79.442 Y111.208 E0.02365
G1 X79.442 Y113.831 E0.08224
G1 X78.688 Y113.831 E0.02365
G1 X78.688 Y111.208 E0.08224
G1 X77.933 Y111.208 E0.02365
G1 X77.933 Y113.831 E0.08223
G1 X77.179 Y113.831 E0.02365
G1 X77.179 Y111.208 E0.08223
G1 X76.425 Y111.208 E0.02365
G1 X76.425 Y113.831 E0.08223
G1 X75.671 Y113.831 E0.02365
G1 X75.671 Y103.254 E0.33161
G1 X76.425 Y103.254 E0.02365
G1 X76.425 Y105.877 E0.08224
M73 P2 R17
G1 X77.179 Y105.877 E0.02365
G1 X77.179 Y103.254 E0.08223
G1 X77.933 Y103.254 E0.02365
G1 X77.933 Y106.047 E0.08755
M204 S1250
G1 X76.537 Y106.082 F9000.000
M204 S800
;TYPE:Support material interface
;WIDTH:0.35
G1 F1200.000
G1 X76.537 Y110.860 E0.12202
G1 X77.055 Y110.860 E0.01322
G1 X77.055 Y106.225 E0.11837
G1 X77.573 Y106.225 E0.01322
G1 X77.573 Y110.860 E0.11837
G1 X78.090 Y110.860 E0.01322
G1 X78.096 Y109.270 E0.04061
G1 X78.177 Y109.595 E0.00855
G1 X78.294 Y109.820 E0.00648
G1 X78.451 Y110.019 E0.00647
G1 X78.608 Y110.153 E0.00527
G1 X78.608 Y110.860 E0.01806
G1 X79.126 Y110.860 E0.01322
G1 X79.126 Y110.390 E0.01201
G1 X79.231 Y110.404 E0.00271
G1 X79.232 Y110.422 E0.00046
G1 X79.644 Y110.421 E0.01052
G1 X79.644 Y110.860 E0.01121
G1 X80.162 Y110.860 E0.01322
G1 X80.162 Y110.418 E0.01130
G1 X80.679 Y110.417 E0.01322
G1 X80.679 Y111.003 E0.01498
M204 S1250
G1 E-2.24000 F4200.000
;WIPE_START
G1 F7200.000
G1 X80.679 Y110.417 E-0.32507
G1 X80.162 Y110.418 E-0.28695
G1 X80.162 Y110.860 E-0.24532
G1 X80.063 Y110.860 E-0.05466
;WIPE_END
G1 E-0.04800 F4200.000
G1 Z0.400 F9000.000
G1 X78.688 Y109.988
G1 Z0.200
G1 E3.20000 F2400.000
M204 S800
;TYPE:Support material
;WIDTH:0.42
G1 F1200.000
G1 X78.688 Y109.311 E0.02123
M73 P3 R17
G1 X78.799 Y109.501 E0.00690
G1 X78.999 Y109.701 E0.00887
G1 X79.254 Y109.843 E0.00915
G1 X79.442 Y109.892 E0.00608
G1 X79.442 Y110.243 E0.01100
M204 S1250
G1 X80.162 Y109.513 F9000.000
M204 S800
;TYPE:Support material interface
;WIDTH:0.35
G1 F1200.000
G1 X80.162 Y108.427 E0.02774
G1 X80.062 Y108.327 E0.00359
G1 X79.930 Y108.245 E0.00398
G1 X79.783 Y108.193 E0.00398
G1 X79.644 Y108.178 E0.00357
G1 X79.644 Y109.561 E0.03531
G1 X79.380 Y109.518 E0.00682
G1 X79.210 Y109.423 E0.00499
G1 X79.126 Y109.346 E0.00289
G1 X79.126 Y108.203 E0.02921
M204 S1250
G1 E-2.24000 F4200.000
;WIPE_START
G1 F7200.000
G1 X79.126 Y109.346 E-0.63393
G1 X79.210 Y109.423 E-0.06273
G1 X79.380 Y109.518 E-0.10820
G1 X79.571 Y109.549 E-0.10714
;WIPE_END
G1 E-0.04800 F4200.000
G1 Z0.400 F9000.000
G1 X81.704 Y103.836
G1 Z0.200
G1 E3.20000 F2400.000
M204 S800
;TYPE:Support material
;WIDTH:0.42
G1 F1200.000
G1 X81.704 Y103.254 E0.01824
G1 X82.458 Y103.254 E0.02365
G1 X82.458 Y113.831 E0.33161
G1 X83.213 Y113.831 E0.02365
G1 X83.213 Y103.254 E0.33161
G1 X83.967 Y103.254 E0.02365
G1 X83.967 Y113.831 E0.33161
G1 X84.721 Y113.831 E0.02365
G1 X84.721 Y103.254 E0.33161
G1 X85.475 Y103.254 E0.02365
G1 X85.475 Y113.831 E0.33161
G1 X86.229 Y113.831 E0.02365
G1 X86.229 Y103.254 E0.33161
G1 X86.983 Y103.254 E0.02365
G1 X86.983 Y113.831 E0.33161
G1 X87.738 Y113.831 E0.02365
G1 X87.738 Y103.254 E0.33161
G1 X88.492 Y103.254 E0.02365
G1 X88.492 Y113.831 E0.33161
G1 X89.246 Y113.831 E0.02365
G1 X89.246 Y103.254 E0.33161
G1 X90.000 Y103.254 E0.02365
G1 X90.000 Y113.831 E0.33161
G1 X90.754 Y113.831 E0.02365
G1 X90.754 Y103.254 E0.33161
G1 X91.508 Y103.254 E0.02365
G1 X91.508 Y113.831 E0.33161
G1 X92.262 Y113.831 E0.02365
G1 X92.262 Y103.254 E0.33161
G1 X93.017 Y103.254 E0.02365
G1 X93.017 Y113.831 E0.33161
G1 X93.771 Y113.831 E0.02365
G1 X93.771 Y103.254 E0.33161
G1 X94.525 Y103.254 E0.02365
G1 X94.525 Y113.831 E0.33161
M73 P4 R17
G1 X95.279 Y113.831 E0.02365
G1 X95.279 Y103.254 E0.33161
G1 X96.033 Y103.254 E0.02365
G1 X96.033 Y113.831 E0.33161
G1 X96.787 Y113.831 E0.02365
G1 X96.787 Y103.254 E0.33161
G1 X97.466 Y103.254 E0.02129
G1 X97.466 Y109.850 E0.20681
G1 X97.542 Y109.921 E0.00324
G1 X97.542 Y113.831 E0.12258
G1 X98.296 Y113.831 E0.02365
G1 X98.296 Y110.089 E0.11731
G1 X98.794 Y110.007 E0.01582
G1 X99.050 Y109.929 E0.00840
G1 X99.050 Y113.831 E0.12233
G1 X99.804 Y113.831 E0.02365
G1 X99.804 Y109.589 E0.13299
G1 X100.030 Y109.450 E0.00832
G1 X100.359 Y109.193 E0.01309
G1 X100.558 Y108.996 E0.00879
G1 X100.558 Y113.831 E0.15158
G1 X101.312 Y113.831 E0.02365
G1 X101.312 Y107.865 E0.18705
G1 X101.376 Y107.719 E0.00499
G1 X101.500 Y107.321 E0.01309
G1 X101.582 Y106.883 E0.01396
G1 X101.611 Y106.432 E0.01417
G1 X101.611 Y105.877 E0.01741
G1 X102.067 Y105.671 E0.01567
G1 X102.067 Y114.000 E0.26114
M204 S1250
G1 E-2.24000 F4200.000
;WIPE_START
G1 F7200.000
G1 X102.067 Y112.355 E-0.91200
;WIPE_END
G1 E-0.04800 F4200.000
G1 Z0.400 F9000.000
G1 X100.284 Y104.538
G1 Z0.200
G1 E3.20000 F2400.000
M204 S800
;TYPE:External perimeter
G1 F1200.000
G1 X99.459 Y104.524 E0.02589
G1 X99.027 Y104.464 E0.01367
G1 X98.465 Y104.276 E0.01857
G1 X98.465 Y93.974 E0.32303
G1 X99.027 Y93.786 E0.01857
G1 X99.459 Y93.726 E0.01367
G1 X100.284 Y93.712 E0.02589
G1 X100.284 Y104.478 E0.33755
M204 S1250
G1 X100.290 Y104.938 F9000.000
G1 X100.277 Y104.915
M204 S800
;TYPE:Perimeter
G1 F1200.000
G1 X100.365 Y104.916 E0.00277
G1 X100.365 Y106.401 E0.04656
G1 X100.346 Y106.719 E0.00998
G1 X100.293 Y107.009 E0.00923
G1 X100.205 Y107.290 E0.00923
G1 X100.084 Y107.558 E0.00923
G1 X99.932 Y107.810 E0.00923
G1 X99.750 Y108.042 E0.00923
G1 X99.542 Y108.250 E0.00923
G1 X99.310 Y108.432 E0.00923
G1 X99.058 Y108.584 E0.00923
G1 X98.711 Y108.730 E0.01180
G1 X98.707 Y105.754 E0.09331
G1 X98.678 Y105.226 E0.01656
G1 X98.604 Y104.720 E0.01604
G1 X98.940 Y104.833 E0.01114
G1 X99.429 Y104.901 E0.01548
G1 X100.217 Y104.914 E0.02469
M204 S1250
G1 E-2.24000 F4200.000
;WIPE_START
G1 F7200.000
G1 X100.365 Y104.916 E-0.08217
G1 X100.365 Y106.401 E-0.82284
G1 X100.364 Y106.414 E-0.00700
;WIPE_END
G1 E-0.04800 F4200.000
G1 Z0.400 F9000.000
G1 X81.289 Y104.949
G1 Z0.200
G1 E3.20000 F2400.000
M204 S800
G1 F1200.000
G1 X81.295 Y107.945 E0.09394
G1 X81.132 Y107.678 E0.00979
G1 X80.822 Y107.368 E0.01376
G1 X80.454 Y107.144 E0.01352
G1 X80.009 Y106.990 E0.01474
G1 X79.583 Y107.005 E0.01337
G1 X79.617 Y106.725 E0.00885
G1 X79.628 Y106.227 E0.01562
G1 X79.629 Y101.919 E0.13506
G1 X80.449 Y101.879 E0.02574
G1 X80.372 Y102.577 E0.02202
G1 X80.343 Y103.108 E0.01666
G1 X80.335 Y104.912 E0.05658
G1 X81.266 Y104.912 E0.02918
M204 S1250
G1 E-2.24000 F4200.000
;WIPE_START
G1 F7200.000
G1 X81.281 Y106.558 E-0.91200
;WIPE_END
G1 E-0.04800 F4200.000
G1 Z0.400 F9000.000
G1 X79.716 Y93.712
G1 Z0.200
G1 E3.20000 F2400.000
M204 S800
;TYPE:External perimeter
G1 F1200.000
G1 X80.541 Y93.726 E0.02588
G1 X80.973 Y93.786 E0.01367
G1 X81.535 Y93.974 E0.01857
G1 X81.535 Y101.291 E0.22942
G1 X80.967 Y101.426 E0.01832
G1 X80.548 Y101.496 E0.01332
G1 X79.724 Y101.537 E0.02586
G1 X79.716 Y93.772 E0.24347
M204 S1250
G1 X79.706 Y93.312 F9000.000
G1 E-2.24000 F4200.000
;WIPE_START
G1 F7200.000
G1 X80.541 Y93.726 E-0.45815
G1 X80.973 Y93.786 E-0.24161
G1 X81.336 Y93.907 E-0.21224
;WIPE_END
G1 E-0.04800 F4200.000
G1 Z0.400 F9000.000
G1 X82.665 Y77.187
G1 Z0.200
G1 E3.20000 F2400.000
M204 S800
G1 F1200.000
G1 X82.665 Y73.165 E0.12611
G1 X85.386 Y73.165 E0.08530
G1 X85.379 Y75.411 E0.07043
G1 X85.346 Y75.886 E0.01494
G1 X85.159 Y76.941 E0.03359
G1 X84.541 Y77.115 E0.02013
G1 X84.038 Y77.174 E0.01587
G1 X82.725 Y77.186 E0.04118
M204 S1250
G1 X82.265 Y77.192 F9000.000
G1 E-2.24000 F4200.000
;WIPE_START
G1 F7200.000
G1 X82.700 Y75.541 E-0.91200
;WIPE_END
M73 P5 R17
G1 E-0.04800 F4200.000
G1 Z0.400 F9000.000
G1 X86.090 Y75.285
G1 Z0.200
G1 E3.20000 F2400.000
M204 S800
G1 F1200.000
G1 X86.090 Y71.965 E0.10410
G1 X93.910 Y71.965 E0.24519
G1 X93.910 Y75.285 E0.10410
G1 X86.150 Y75.285 E0.24331
M204 S1250
G1 X85.694 Y75.338 F9000.000
G1 E-2.24000 F4200.000
;WIPE_START
G1 F7200.000
G1 X86.120 Y73.640 E-0.91200
;WIPE_END
G1 E-0.04800 F4200.000
G1 Z0.400 F9000.000
G1 X99.785 Y78.465
G1 Z0.200
G1 E3.20000 F2400.000
M204 S800
G1 F1200.000
G1 X99.785 Y92.035 E0.42548
G1 X98.335 Y92.035 E0.04546
G1 X98.335 Y93.285 E0.03919
G1 X81.665 Y93.285 E0.52268
G1 X81.665 Y92.035 E0.03919
G1 X80.215 Y92.035 E0.04546
G1 X80.215 Y78.465 E0.42548
G1 X84.577 Y78.468 E0.13675
G1 X85.081 Y78.488 E0.01584
G1 X85.588 Y78.544 E0.01599
G1 X86.078 Y78.628 E0.01558
G1 X86.544 Y78.663 E0.01464
G1 X87.523 Y78.567 E0.03085
G1 X88.039 Y78.568 E0.01620
G1 X88.540 Y78.630 E0.01581
G1 X89.013 Y78.663 E0.01486
G1 X90.000 Y78.590 E0.03104
G1 X90.987 Y78.663 E0.03104
G1 X91.460 Y78.630 E0.01486
G1 X91.961 Y78.568 E0.01581
G1 X92.477 Y78.567 E0.01620
G1 X93.456 Y78.663 E0.03085
G1 X93.922 Y78.628 E0.01464
G1 X94.412 Y78.544 E0.01558
G1 X94.919 Y78.488 E0.01599
G1 X95.423 Y78.468 E0.01584
G1 X99.725 Y78.465 E0.13487
M204 S1250
G1 X100.185 Y78.464 F9000.000
G1 E-2.24000 F4200.000
;WIPE_START
G1 F7200.000
G1 X99.732 Y80.111 E-0.91200
;WIPE_END
G1 E-0.04800 F4200.000
G1 Z0.400 F9000.000
G1 X92.321 Y78.190
G1 Z0.200
G1 E3.20000 F2400.000
M204 S800
;TYPE:Perimeter
G1 F1200.000
G1 X92.128 Y78.191 E0.00605
G1 X92.225 Y78.047 E0.00543
G1 X92.288 Y78.141 E0.00353
M204 S1250
G1 E-2.24000 F4200.000
;WIPE_START
G1 F7200.000
G1 X92.128 Y78.191 E-0.09262
G1 X92.225 Y78.047 E-0.09595
G1 X92.288 Y78.141 E-0.06246
;WIPE_END
G1 E-0.70897 F4200.000
G1 Z0.400 F9000.000
G1 X87.871 Y78.191
G1 Z0.200
G1 E3.20000 F2400.000
M204 S800
G1 F1200.000
G1 X87.679 Y78.190 E0.00605
G1 X87.775 Y78.047 E0.00542
G1 X87.838 Y78.141 E0.00355
M204 S1250
G1 E-2.24000 F4200.000
;WIPE_START
G1 F7200.000
G1 X87.679 Y78.190 E-0.09252
G1 X87.775 Y78.047 E-0.09574
G1 X87.838 Y78.141 E-0.06267
;WIPE_END
G1 E-0.70907 F4200.000
G1 Z0.400 F9000.000
G1 X86.198 Y75.662
G1 Z0.200
G1 E3.20000 F2400.000
M204 S800
G1 F1200.000
G1 X86.081 Y75.686 E0.00373
G1 X85.724 Y75.884 E0.01281
G1 X85.739 Y75.662 E0.00698
G1 X86.138 Y75.662 E0.01249
M204 S1250
G1 E-2.24000 F4200.000
;WIPE_START
G1 F7200.000
G1 X86.081 Y75.686 E-0.03396
G1 X85.724 Y75.884 E-0.22646
G1 X85.739 Y75.662 E-0.12339
G1 X86.138 Y75.662 E-0.22070
;WIPE_END
G1 E-0.35550 F4200.000
G1 Z0.400 F9000.000
G1 X85.534 Y77.807
G1 Z0.200
G1 E3.20000 F2400.000
M204 S800
;TYPE:External perimeter
G1 F1200.000
G1 X85.442 Y77.487 E0.01043
G1 X85.464 Y77.188 E0.00939
G1 X85.596 Y76.722 E0.01522
G1 X85.705 Y76.449 E0.00920
G1 X85.924 Y76.204 E0.01029
G1 X86.213 Y76.044 E0.01038
G1 X86.502 Y75.985 E0.00925
G1 X86.877 Y76.027 E0.01183
G1 X87.181 Y76.181 E0.01066
G1 X87.412 Y76.421 E0.01045
G1 X87.542 Y76.711 E0.00996
G1 X87.612 Y77.231 E0.01646
G1 X87.520 Y77.750 E0.01655
G1 X87.341 Y78.016 E0.01003
G1 X87.086 Y78.189 E0.00967
G1 X86.811 Y78.270 E0.00899
G1 X86.550 Y78.287 E0.00820
G1 X86.297 Y78.270 E0.00796
G1 X86.017 Y78.210 E0.00896
G1 X85.752 Y78.051 E0.00969
G1 X85.574 Y77.852 E0.00839
M204 S1250
G1 X85.202 Y77.792 F9000.000
G1 E-2.24000 F4200.000
;WIPE_START
G1 F7200.000
G1 X85.442 Y77.487 E-0.21476
G1 X85.464 Y77.188 E-0.16593
G1 X85.596 Y76.722 E-0.26893
G1 X85.705 Y76.449 E-0.16261
G1 X85.825 Y76.315 E-0.09977
;WIPE_END
G1 E-0.04800 F4200.000
G1 Z0.400 F9000.000
G1 X86.991 Y75.662
G1 Z0.200
G1 E3.20000 F2400.000
M204 S800
;TYPE:Perimeter
G1 F1200.000
G1 X88.572 Y75.662 E0.04956
G1 X88.149 Y75.874 E0.01483
G1 X87.823 Y76.203 E0.01451
G1 X87.775 Y76.310 E0.00368
G1 X87.729 Y76.207 E0.00354
G1 X87.408 Y75.873 E0.01452
G1 X87.045 Y75.689 E0.01277
M204 S1250
G1 E-2.24000 F4200.000
;WIPE_START
G1 F7200.000
G1 X88.572 Y75.662 E-0.84636
G1 X88.466 Y75.715 E-0.06564
;WIPE_END
G1 E-0.04800 F4200.000
G1 Z0.400 F9000.000
G1 X89.349 Y76.077
G1 Z0.200
G1 E3.20000 F2400.000
M204 S800
;TYPE:External perimeter
G1 F1200.000
G1 X89.602 Y76.301 E0.01058
G1 X89.918 Y76.691 E0.01577
G1 X90.000 Y76.888 E0.00668
G1 X90.082 Y76.691 E0.00668
G1 X90.398 Y76.301 E0.01577
G1 X90.648 Y76.079 E0.01047
G1 X90.947 Y76.018 E0.00958
G1 X91.317 Y76.028 E0.01160
G1 X91.627 Y76.183 E0.01086
G1 X91.861 Y76.419 E0.01042
G1 X91.992 Y76.710 E0.01001
G1 X92.062 Y77.231 E0.01646
G1 X91.970 Y77.750 E0.01655
G1 X91.791 Y78.016 E0.01003
G1 X91.536 Y78.189 E0.00967
G1 X91.261 Y78.270 E0.00899
G1 X90.998 Y78.287 E0.00826
G1 X90.730 Y78.264 E0.00845
G1 X90.454 Y78.159 E0.00924
G1 X90.244 Y77.969 E0.00888
